X:1

T:Bath Minuet [2]

M:3/4

L:1/8

R:Minuet

S:John Burks’ music manuscript copybook, dated 1821

N:A bass part is included in the manuscript

K:G

d3 cBA|G2B2d2|c3 BAG|F2A2B2|G>G G2A2|B>B B2c2|

d2 g>d c>B|(B2 A4)::d2 dddd|d2 e2z2|f2 ffff|f2 g2z2|

E2e2d2|D2c2B2|ec B2G2|FE/F/ D2 z2|d3 cBA|

GB dg b2|c3 BAG|FA df a2|gd B2c2|dB G2g2|(3edc B2A2|G6:|

 

BATH MINUET [3].  AKA and see “Lord Cathcart’s.”

                       


BATH ROAD HORNPIPE. AKA and see “Brendan’s Fancy,” “Concertina Hornpipe [2].” Irish, Hornpipe. G Major. Standard tuning. AABB. O'Neill (Krassen), 1976; pg. 193. O'Neill (Music of Ireland: 1850 Melodies), 1903/1979; No. 1682, pg. 313.

